X:1221
T:Polska efter bokhållare Hornberg
R:Polska
Z:Göran Hed 2009-002-20
O:Österfärnebo, Gästrikland
S:efter Gunnar Persson
M: 3/4
L: 1/8
K:G
B|d>d e>d B>d| g>d B2 G2| c>B cA (3FAc| e>dB2G2|
d>d e>d B>d| g>d B2G2| c>B c>A F>A| A/2c/2A/2F/2 G3:|
|:D| G2 (3BGB (3dBd| g>d B>G D>D| F2 (3AFA (3cAc|
e>d B>G D>D| G2 (3BGB (3dBd| g>d B>G D>D| F2 (3AFA (3cAF|A2G2z:|
(:musicend:)

(:music:)
